X: 3
T: Drowsy Maggie
T: Liz Carroll's 3-part version
Z: unknown
R: reel
M: C|
L: 1/8
K: EDor
|: "Em"E2BE dEBE | E2BE "D"AFDF | "Em"E2BE dEBE | BABc "D"dAFD :|
K:D
|: "D"d2fd "A7"c2ec | "D"defg afge |\
[1 "D"d2fd "A7"c2ec | "G"BABc "D"dAFA :|\
[2 afge "A"fdec | "G"BABc "D"dAFD |]
K:A
|: dBfB dBfB | A2 eA fAeA |\
[1 dBfB dBfB | defg aecf :|\
[2 EGBe aece | d2 ce dAFD |]

%%sep 2 1 500

